X:1
T:Langa, 11.10.11.6
T:Langa, 11.10.11.6
T:Francisco Soto de Langa (1534-1619)
T:Public Domain Courtesy of the Cyber Hymnal™
C:Francisco Soto de Langa (1534-1619)
Z:Public Domain
Z:Courtesy of the Cyber Hymnal™
%%score ( 1 2 ) ( 3 4 )
L:1/8
M:4/4
K:F
V:1 treble 
V:2 treble 
V:3 bass 
V:4 bass 
V:1
 [FA]4 [FA]2 [FB]2 | [Ec]6 [Ec]2 | [Fc]2 [FA]2 [FB]2 [Fc]2 | [Fd]4 [Fd]4 | z2 [EG]2 G2 [^FA]2 | %5
 [GB]6 [GB]2 | [GB]2 [EB]2 [FA]2 [DG]2 | [EG]8 | [FA]4 [Ec]2 [GB]2 | A6 [FA]2 | %10
 [EG]2 [DF]2 [DE]2 [^CE]2 | [DF]4 [DF]4 | B4 [FA]2 [FA]2 | [FG]4 [EG]4 | F8 |] %15
V:2
 x8 | x8 | x8 | x8 | x4 G2 x2 | x8 | x8 | x8 | x8 | (G4 F2) x2 | x8 | x8 | D2 E2 x4 | x8 | F8 |] %15
V:3
 [F,C]4 [F,C]2 [D,F,]2 | [C,G,]6 [C,G,]2 | [F,A,]2 [F,C]2 [G,F]2 [A,E]2 | [B,D]4 [B,D]4 | %4
 z2 [CE]2 [B,D]2 [A,C]2 | [G,D]6 [F,D]2 | [E,C]2 [C,C]2 [F,C]2 [G,=B,]2 | [C,C]8 | %8
 [F,C]4 [A,C]2 [G,D]2 | [D,D]6 [D,D]2 | [G,B,]2 [D,A,]2 A,2 [A,,A,]2 | [D,A,]4 [D,A,]4 | %12
 [G,,B,]4 [A,,C]2 [B,,D]2 | [C,G,]4 (C2 B,2) | [F,,A,]8 |] %15
V:4
 x8 | x8 | x8 | x8 | x8 | x8 | x8 | x8 | x8 | x8 | x4 A,2 x2 | x8 | x8 | x4 C,4 | x8 |] %15

